X:1
P: Luckenbooth Brooch
N: 8 x 32J 3C
P:The Weaver and His Wife
C: Andrew Rankine
C: arr. T. Traub 4-7-2001
R: Jig
M: 6/8
K: A
L: 1/8
|: GF|"A"E2 E EAB|"A"c3 A3|"A"c3 "F#m"A2 c|"Bm"edc "E"B3|\
  "E"E2 E EBc|"E7"d3 B3|"E"E2 e dcB|"A"A3 A :|
GF|"A"EAc e3|"A"EAB c3|"A"EAc "F#m"edc|"Bm"d3- dBc|\
  "Bm"ded "E"BdB|"E"G3 F3|"E"E2 e "E7"dcB|"A"A3- "E"AGF||
"A"EAc e3|"A"EAe c3|"A"EAc "Adim"edc|"Bm"d3- dBc|\
  "E"ded BdB|"E"G3 "D"F3|"E"E2 e dcB |"A"A3- A2 |]
